X: 1
T: Hard Road To Passage, The
M: 6/8
L: 1/8
R: jig
K: Dmaj
|:dcA AGE | F3 GEA | DED DFA | BAF EFA |
dcA AGE | F3 GEA | DED DFA | BAF D2A :|
|: dcd afd | =cBc ge^c | dcd afd | BAF EFA |
dcd afd | =cBc ge^c | f3 baf | BAF D2A :|
